X: 35870
T: Sandansko Oro
R: slip jig
M: 9/8
K: Dmajor
[M:9/8]|:E2 B2 A2 BBB|AA AG BA AAG|[M:4/8] GF FE|
[M:9/8] EF GD GF AAG|GF FE FE EEB|1 [M:4/8] EF GA:|2 [M:4/8] EE E2||
[M:9/8]|:EF GD GF AAG|GF FE GA AAB|[M:4/8] AG GF|
[M:9/8] EF GD GF AAG|GF FE FE EEB|[M:4/8] EE E2:|
[M:9/8]|:fg aa ag ggf|fg ab c'b aag|[M:4/8] fg gf|
[M:9/8] fg aa ag ggf|fg ab ag gfg|[M:4/8] ff f2:|

